assets/images/icon-tetris.svg

<svg fill="none" height="52" viewBox="0 0 52 52" width="52" xmlns="http://www.w3.org/2000/svg"><g stroke="#b8c9ac" stroke-linecap="square" stroke-width="2"><path d="m11 1h30v8h-8v8h-8v-8h-14z"/><path d="m51 19h-8v10h-8v6h16v-6z"/><path d="m38 35h-15v8h19v8h9v-16z"/><path d="m22.9643 43h-21.9643v8h41v-8z"/><path d="m9 19h-8v10 14h22v-14h-14z"/><path d="m15 36.5h-14v-7.5 14h22v-14h-8z"/></g></svg>

<svg width="52" height="52" viewBox="0 0 52 52" fill="none" xmlns="http://www.w3.org/2000/svg">
<path d="M11 1H41V9H33V17H25V9H11V1Z" stroke="#B8C9AC" stroke-width="2" stroke-linecap="square"/>
<path d="M51 19H43V29H35V35H51V29V19Z" stroke="#B8C9AC" stroke-width="2" stroke-linecap="square"/>
<path d="M38 35H23V43H42V51H51V35H38Z" stroke="#B8C9AC" stroke-width="2" stroke-linecap="square"/>
<path d="M22.9643 43H1V51H42V43H22.9643Z" stroke="#B8C9AC" stroke-width="2" stroke-linecap="square"/>
<path d="M9 19H1V29V43H23V29H9V19Z" stroke="#B8C9AC" stroke-width="2" stroke-linecap="square"/>
<path d="M15 36.5H1V29V43H23V29H15V36.5Z" stroke="#B8C9AC" stroke-width="2" stroke-linecap="square"/>
</svg>
